kora-light-panel/panel/16/network-cellular-umts.svg

<svg xmlns="http://www.w3.org/2000/svg" width="16" height="16" viewBox="0 0 16 16">
 <defs>
  <style id="current-color-scheme" type="text/css">
   .ColorScheme-Text { color:#444444; } .ColorScheme-Highlight { color:#4285f4; } .ColorScheme-NeutralText { color:#ff9800; } .ColorScheme-PositiveText { color:#4caf50; } .ColorScheme-NegativeText { color:#f44336; }
  </style>
 </defs>
 <path style="fill:currentColor" class="ColorScheme-Text" d="m4 3h2v8h4v-8h2v8s0 2-2 2h-4s-2 0-2-2z"/>
</svg>

<svg xmlns="http://www.w3.org/2000/svg" width="16" height="16" version="1.1">
 <defs>
  <style id="current-color-scheme" type="text/css">
   .ColorScheme-Text { color:#444444; } .ColorScheme-Highlight { color:#4285f4; }
  </style>
 </defs>
 <path style="fill:currentColor" class="ColorScheme-Text" d="M 3,1 C 3,1 1,1 1,3.06 V 13 C 1,15 3,15 3,15 H 13 C 15,15 15,13 15,13 V 3 C 15,3 15,1 13,1 Z M 4,3 H 6 V 11 H 10 V 3 H 12 V 11 C 12,11 12,13 10,13 H 6 C 6,13 4,13 4,11 Z"/>
</svg>
